X:1
T:42 Regt. Quick March. JMP.027
C:"28"
L:1/8
Q:1/4=110
M:2/4
I:linebreak $
K:G
V:1 treble 
V:1
 E | G2 BA/G/ | GBBg | dBA"^1"G | AFED | G2 BA/G/ | GBBg | dBAG | A2 G :: d | gfed | efga |$ gfed | %13
 e2 d2 | gfed | efge | dBAG | A2 G :| %18
